; generated by PrusaSlicer 2.1.0+ on 2019-11-13 at 02:06:32 UTC

; FILAMENT_TYPE_PETG

; external perimeters extrusion width = 0.42mm
; perimeters extrusion width = 0.42mm
; infill extrusion width = 0.50mm
; solid infill extrusion width = 0.42mm
; top infill extrusion width = 0.42mm
; first layer extrusion width = 0.42mm

; external perimeters extrusion width = 0.42mm
; perimeters extrusion width = 0.42mm
; infill extrusion width = 0.50mm
; solid infill extrusion width = 0.42mm
; top infill extrusion width = 0.42mm
; first layer extrusion width = 0.42mm

; external perimeters extrusion width = 0.42mm
; perimeters extrusion width = 0.42mm
; infill extrusion width = 0.50mm
; solid infill extrusion width = 0.42mm
; top infill extrusion width = 0.42mm
; first layer extrusion width = 0.42mm

; external perimeters extrusion width = 0.42mm
; perimeters extrusion width = 0.42mm
; infill extrusion width = 0.50mm
; solid infill extrusion width = 0.42mm
; top infill extrusion width = 0.42mm
; first layer extrusion width = 0.42mm

; external perimeters extrusion width = 0.42mm
; perimeters extrusion width = 0.42mm
; infill extrusion width = 0.50mm
; solid infill extrusion width = 0.42mm
; top infill extrusion width = 0.42mm
; first layer extrusion width = 0.42mm

; external perimeters extrusion width = 0.42mm
; perimeters extrusion width = 0.42mm
; infill extrusion width = 0.50mm
; solid infill extrusion width = 0.42mm
; top infill extrusion width = 0.42mm
; first layer extrusion width = 0.42mm

M107
;P2PP PRINTERPROFILE=373fd85d66ac76f6
;P2PP SPLICEOFFSET=30
;P2PP MINSTARTSPLICE=100
;P2PP MINSPLICE=80
;P2PP MATERIAL_DEFAULT_0_0_0
;P2PP MATERIAL_PLA_PLA_2_-2_3
;P2PP MATERIAL_PET_PET_0_-1_-3

; even is you are not using SIDE TRANSITIONS, make sure the bed is defined correctly!!
; the default settings will match Pruse MK3(s) printers.
;P2PP BEDORIGINX=0
;P2PP BEDORIGINY=0
;P2PP BEDSIZEX=300
;P2PP BEDSIZEY=300

;P2PP P+PPMF=80
;P2PP P+LOADINGOFFSET=130
;P2PP MATERIAL_DEFAULT=2_2_0

; Following settings are optional (see description below)

;P2PP LINEARPINGLENGTH=350
;P2PP EXTRAENDFILAMENT=150

M115 U3.1.0 ; tell printer latest fw version

; Come up to temperature
M104 S180 ; set extruder temp
M140 S75 ; set bed temp
M190 S75 ; wait for bed temp
M104 S245 ; set extruder temp
M109 S245 ; wait for extruder temp

; Probe and compensate Z tilt
G32

; Home and enable mesh compensation with 10mm fade
G28 Z
G29 S1
M376 H10

; Filament configuration
M703 

G92 E0.0
G21 ; set units to millimeters
G90 ; use absolute coordinates
M83 ; use relative distances for extrusion
T2
G1 Z0.200 F15000.000
;LAYER 0
G1 Z0.200 F15000.000
G1 Z0.400
G1 E-1.00000 F1500.00000
G1 X159.697 Y145.080 F15000.000
G1 Z0.200
G1 E1.00000 F1500.00000
;-------------------------------------
; CP WIPE TOWER FIRST LAYER BRIM START
G1  X159.697 Y177.680 E1.8585 F2400
G1  X157.154 Y178.137  F7000
G1  Y144.623 E1.4011 F2100
G1  X96.240 E2.5466
G1  Y178.137 E1.4011
G1  X157.154 E2.5466
G1  X157.611 Y178.594  F7000
G1  Y144.166 E1.4393 F2100
G1  X95.783 E2.5849
G1  Y178.594 E1.4393
G1  X157.611 E2.5849
G1  X158.068 Y179.051  F7000
G1  Y143.709 E1.4776 F2100
G1  X95.326 E2.6231
G1  Y179.051 E1.4776
G1  X158.068 E2.6231
G1  X158.525 Y179.508  F7000
G1  Y143.252 E1.5158 F2100
G1  X94.869 E2.6613
G1  Y179.508 E1.5158
G1  X158.525 E2.6613
G1  X156.697 Y177.680  F7000
G1  X96.697
G1  X156.697
; CP WIPE TOWER FIRST LAYER BRIM END
;-----------------------------------

G1 E-1.00000 F1500.00000
G1 Z0.400 F15000.000
G1 X166.132 Y173.207
G1 Z0.200
G1 E1.00000 F1500.00000
M204 S1000
G1 F1200
G1 X144.779 Y128.166 E1.56287
G1 X144.326 Y126.926 E0.04141
G1 X141.657 Y118.475 E0.27789
G1 X141.256 Y116.956 E0.04926
G1 X141.004 Y115.451 E0.04783
G1 X140.888 Y113.846 E0.05047
G1 X140.921 Y112.295 E0.04864
G1 X141.088 Y110.814 E0.04674
G1 X141.572 Y108.671 E0.06889
G1 X142.321 Y106.632 E0.06812
G1 X143.334 Y104.695 E0.06852
G1 X144.584 Y102.914 E0.06823
G1 X146.046 Y101.318 E0.06785
G1 X147.724 Y99.906 E0.06878
G1 X149.556 Y98.733 E0.06821
G1 X151.560 Y97.792 E0.06939
G1 X152.888 Y97.336 E0.04403
G1 X154.306 Y96.980 E0.04586
G1 X193.371 Y89.313 E1.24822
G1 X195.456 Y89.007 E0.06606
G1 X197.378 Y88.918 E0.06033
G1 X199.474 Y89.031 E0.06582
G1 X201.764 Y89.406 E0.07275
G1 X203.761 Y89.963 E0.06501
G1 X205.904 Y90.816 E0.07234
G1 X207.751 Y91.797 E0.06554
G1 X209.665 Y93.097 E0.07256
G1 X211.238 Y94.436 E0.06476
G1 X212.809 Y96.093 E0.07159
G1 X214.089 Y97.779 E0.06637
G1 X215.279 Y99.761 E0.07248
G1 X216.153 Y101.658 E0.06550
G1 X216.877 Y103.815 E0.07134
G1 X217.327 Y105.871 E0.06600
G1 X217.573 Y108.153 E0.07194
G1 X217.571 Y110.222 E0.06488
G1 X217.337 Y112.414 E0.06914
G1 X210.143 Y144.186 E1.02141
G1 X198.696 Y179.398 E1.16090
G1 X198.057 Y181.028 E0.05491
G1 X197.508 Y182.111 E0.03804
G1 X196.841 Y183.201 E0.04006
G1 X196.101 Y184.214 E0.03936
G1 X195.263 Y185.184 E0.04020
G1 X194.364 Y186.067 E0.03951
G1 X193.394 Y186.876 E0.03959
G1 X192.356 Y187.606 E0.03979
G1 X191.283 Y188.239 E0.03905
G1 X190.112 Y188.805 E0.04079
G1 X188.941 Y189.256 E0.03934
G1 X187.702 Y189.620 E0.04049
G1 X186.523 Y189.866 E0.03776
G1 X184.096 Y190.081 E0.07639
G1 X182.875 Y190.045 E0.03831
G1 X181.577 Y189.900 E0.04094
G1 X179.750 Y189.504 E0.05863
G1 X178.048 Y188.919 E0.05641
G1 X176.430 Y188.141 E0.05631
G1 X174.843 Y187.134 E0.05893
G1 X173.456 Y186.003 E0.05612
G1 X172.202 Y184.711 E0.05643
G1 X171.069 Y183.231 E0.05844
G1 X170.135 Y181.649 E0.05763
G1 X166.158 Y173.261 E0.29105
M204 S1500
G1 X166.498 Y173.100 F15000.000
M204 S1000
G1 F1200
G1 X145.134 Y128.037 E1.56368
G1 X144.687 Y126.816 E0.04074
G1 X142.016 Y118.361 E0.27801
G1 X141.629 Y116.898 E0.04746
G1 X141.380 Y115.418 E0.04707
G1 X141.265 Y113.835 E0.04976
G1 X141.297 Y112.327 E0.04729
G1 X141.461 Y110.869 E0.04599
G1 X141.934 Y108.774 E0.06735
G1 X142.671 Y106.772 E0.06689
G1 X143.658 Y104.888 E0.06670
G1 X144.887 Y103.140 E0.06699
G1 X146.317 Y101.581 E0.06633
G1 X147.959 Y100.201 E0.06725
G1 X149.751 Y99.056 E0.06668
G1 X151.728 Y98.132 E0.06843
G1 X153.009 Y97.693 E0.04246
G1 X154.388 Y97.349 E0.04455
G1 X193.443 Y89.683 E1.24790
G1 X195.494 Y89.382 E0.06500
G1 X197.381 Y89.295 E0.05923
G1 X199.431 Y89.406 E0.06437
G1 X201.685 Y89.775 E0.07163
G1 X203.638 Y90.319 E0.06356
G1 X205.748 Y91.160 E0.07123
G1 X207.562 Y92.123 E0.06438
G1 X209.439 Y93.399 E0.07115
G1 X210.983 Y94.714 E0.06361
G1 X212.529 Y96.346 E0.07048
G1 X213.780 Y97.995 E0.06490
G1 X214.951 Y99.947 E0.07137
G1 X215.804 Y101.803 E0.06405
G1 X216.517 Y103.927 E0.07024
G1 X216.957 Y105.947 E0.06482
G1 X217.197 Y108.184 E0.07054
G1 X217.194 Y110.207 E0.06344
G1 X216.961 Y112.375 E0.06835
G1 X209.781 Y144.080 E1.01927
G1 X198.341 Y179.272 E1.16027
G1 X197.731 Y180.833 E0.05253
G1 X196.548 Y182.961 E0.07636
G1 X195.828 Y183.951 E0.03837
G1 X195.007 Y184.906 E0.03949
G1 X194.125 Y185.775 E0.03881
G1 X193.180 Y186.564 E0.03860
G1 X191.116 Y187.900 E0.07710
G1 X189.966 Y188.457 E0.04007
G1 X188.816 Y188.900 E0.03864
G1 X186.458 Y189.494 E0.07622
G1 X184.088 Y189.704 E0.07463
G1 X182.888 Y189.668 E0.03762
G1 X181.623 Y189.526 E0.03993
G1 X179.840 Y189.138 E0.05722
G1 X178.184 Y188.567 E0.05491
G1 X176.601 Y187.805 E0.05509
G1 X175.053 Y186.820 E0.05751
G1 X173.704 Y185.718 E0.05462
G1 X172.478 Y184.454 E0.05521
G1 X171.374 Y183.008 E0.05703
G1 X170.465 Y181.467 E0.05611
G1 X166.524 Y173.154 E0.28845
M204 S1500
G1 X166.864 Y172.993 F15000.000
M204 S1000
G1 F1200
G1 X145.484 Y127.898 E1.56478
G1 X142.379 Y118.257 E0.31759
G1 X142.000 Y116.831 E0.04624
G1 X141.756 Y115.384 E0.04602
G1 X141.642 Y113.833 E0.04875
G1 X141.674 Y112.341 E0.04680
G1 X141.835 Y110.916 E0.04496
G1 X142.299 Y108.869 E0.06581
G1 X143.021 Y106.914 E0.06537
G1 X143.992 Y105.065 E0.06546
G1 X145.195 Y103.359 E0.06545
G1 X146.594 Y101.837 E0.06482
G1 X148.201 Y100.491 E0.06572
G1 X149.954 Y99.375 E0.06516
G1 X151.896 Y98.471 E0.06717
G1 X153.131 Y98.051 E0.04090
G1 X154.460 Y97.719 E0.04297
G1 X193.514 Y90.053 E1.24788
G1 X195.523 Y89.758 E0.06365
G1 X197.375 Y89.672 E0.05813
G1 X199.388 Y89.780 E0.06321
G1 X201.607 Y90.144 E0.07049
G1 X203.524 Y90.678 E0.06240
G1 X205.592 Y91.503 E0.06982
G1 X207.365 Y92.445 E0.06294
G1 X209.212 Y93.700 E0.07002
G1 X210.728 Y94.992 E0.06246
G1 X212.243 Y96.592 E0.06908
G1 X213.466 Y98.204 E0.06344
G1 X214.619 Y100.126 E0.07025
G1 X215.456 Y101.948 E0.06288
G1 X216.154 Y104.030 E0.06886
G1 X216.585 Y106.004 E0.06336
G1 X216.820 Y108.206 E0.06943
G1 X216.817 Y110.193 E0.06229
G1 X216.589 Y112.317 E0.06698
G1 X209.419 Y143.974 E1.01771
G1 X197.982 Y179.155 E1.15992
G1 X197.406 Y180.639 E0.04990
G1 X196.253 Y182.723 E0.07468
G1 X194.750 Y184.629 E0.07610
G1 X192.966 Y186.253 E0.07565
G1 X190.957 Y187.558 E0.07512
G1 X189.828 Y188.106 E0.03935
G1 X188.708 Y188.539 E0.03766
G1 X186.403 Y189.121 E0.07455
G1 X184.088 Y189.327 E0.07286
G1 X181.677 Y189.153 E0.07578
G1 X179.938 Y188.774 E0.05580
G1 X178.319 Y188.215 E0.05371
G1 X176.779 Y187.473 E0.05359
G1 X175.270 Y186.512 E0.05609
G1 X173.958 Y185.440 E0.05313
G1 X172.760 Y184.203 E0.05400
G1 X171.684 Y182.793 E0.05561
G1 X170.796 Y181.285 E0.05488
G1 X166.890 Y173.047 E0.28586
M204 S1500
G1 X167.230 Y172.886 F15000.000
M204 S1000
G1 F1200
G1 X145.835 Y127.759 E1.56589
G1 X142.738 Y118.143 E0.31674
G1 X142.372 Y116.764 E0.04476
G1 X142.130 Y115.341 E0.04525
G1 X142.019 Y113.822 E0.04774
G1 X142.050 Y112.364 E0.04574
G1 X142.209 Y110.963 E0.04420
G1 X142.667 Y108.956 E0.06455
G1 X143.378 Y107.039 E0.06412
G1 X144.335 Y105.228 E0.06421
G1 X145.531 Y103.544 E0.06476
G1 X146.904 Y102.063 E0.06330
G1 X148.500 Y100.740 E0.06503
G1 X150.227 Y99.656 E0.06392
G1 X152.177 Y98.768 E0.06718
G1 X154.550 Y98.085 E0.07744
G1 X193.845 Y90.373 E1.25557
G1 X195.650 Y90.125 E0.05711
G1 X197.378 Y90.050 E0.05422
G1 X199.345 Y90.155 E0.06177
G1 X201.519 Y90.511 E0.06908
G1 X203.401 Y91.035 E0.06124
G1 X205.436 Y91.846 E0.06870
G1 X207.176 Y92.771 E0.06178
G1 X208.986 Y94.001 E0.06861
G1 X210.467 Y95.264 E0.06102
G1 X211.957 Y96.838 E0.06797
G1 X213.157 Y98.420 E0.06227
G1 X214.286 Y100.304 E0.06885
G1 X215.104 Y102.084 E0.06143
G1 X215.794 Y104.142 E0.06803
G1 X216.213 Y106.071 E0.06190
G1 X216.444 Y108.237 E0.06832
G1 X216.441 Y110.178 E0.06086
G1 X216.215 Y112.268 E0.06590
G1 X209.055 Y143.876 E1.01617
G1 X197.624 Y179.038 E1.15928
G1 X197.079 Y180.445 E0.04731
G1 X195.954 Y182.493 E0.07327
G1 X194.493 Y184.352 E0.07412
G1 X192.752 Y185.943 E0.07394
G1 X190.789 Y187.220 E0.07343
G1 X189.681 Y187.758 E0.03861
G1 X188.591 Y188.180 E0.03667
G1 X186.338 Y188.750 E0.07286
G1 X184.088 Y188.950 E0.07081
G1 X181.732 Y188.779 E0.07408
G1 X180.037 Y188.410 E0.05438
G1 X178.455 Y187.863 E0.05249
G1 X176.958 Y187.141 E0.05210
G1 X175.481 Y186.199 E0.05495
G1 X174.167 Y185.119 E0.05332
G1 X172.966 Y183.863 E0.05449
G1 X171.959 Y182.526 E0.05248
G1 X171.122 Y181.095 E0.05197
G1 X167.256 Y172.940 E0.28299
M204 S1500
G1 X167.596 Y172.779 F15000.000
M204 S1000
G1 F1200
G1 X146.189 Y127.628 E1.56673
G1 X143.098 Y118.030 E0.31616
G1 X142.743 Y116.696 E0.04328
G1 X142.505 Y115.298 E0.04447
G1 X142.396 Y113.811 E0.04672
G1 X142.426 Y112.387 E0.04467
G1 X142.582 Y111.019 E0.04316
G1 X143.029 Y109.060 E0.06301
G1 X143.724 Y107.188 E0.06260
G1 X144.659 Y105.421 E0.06268
G1 X145.832 Y103.771 E0.06349
G1 X147.173 Y102.327 E0.06179
G1 X148.741 Y101.031 E0.06376
G1 X150.522 Y99.925 E0.06576
G1 X152.344 Y99.108 E0.06259
G1 X154.623 Y98.455 E0.07434
G1 X193.917 Y90.743 E1.25554
G1 X195.687 Y90.500 E0.05602
G1 X197.372 Y90.427 E0.05289
G1 X199.302 Y90.530 E0.06061
G1 X201.441 Y90.880 E0.06794
G1 X203.278 Y91.391 E0.05980
G1 X205.272 Y92.186 E0.06729
G1 X206.972 Y93.088 E0.06035
G1 X208.752 Y94.297 E0.06748
G1 X210.206 Y95.536 E0.05987
G1 X211.671 Y97.084 E0.06684
G1 X212.843 Y98.629 E0.06082
G1 X213.954 Y100.482 E0.06773
G1 X214.756 Y102.229 E0.06027
G1 X215.431 Y104.244 E0.06664
G1 X215.842 Y106.137 E0.06072
G1 X216.068 Y108.259 E0.06692
G1 X216.064 Y110.163 E0.05970
G1 X215.841 Y112.218 E0.06481
G1 X208.693 Y143.770 E1.01435
G1 X197.268 Y178.913 E1.15864
G1 X196.752 Y180.253 E0.04504
G1 X195.658 Y182.257 E0.07157
G1 X194.235 Y184.075 E0.07241
G1 X192.530 Y185.638 E0.07251
G1 X190.621 Y186.882 E0.07146
G1 X188.473 Y187.822 E0.07349
G1 X186.273 Y188.379 E0.07117
G1 X184.079 Y188.573 E0.06905
G1 X181.777 Y188.405 E0.07236
G1 X180.128 Y188.044 E0.05295
G1 X178.591 Y187.511 E0.05101
G1 X177.137 Y186.809 E0.05061
G1 X175.698 Y185.891 E0.05351
G1 X174.415 Y184.836 E0.05209
G1 X173.246 Y183.612 E0.05306
G1 X172.264 Y182.305 E0.05126
G1 X171.453 Y180.914 E0.05048
G1 X167.622 Y172.833 E0.28041
M204 S1500
G1 X167.962 Y172.672 F15000.000
M204 S1000
G1 F1200
G1 X146.539 Y127.488 E1.56786
G1 X143.457 Y117.916 E0.31530
G1 X143.114 Y116.627 E0.04182
G1 X142.880 Y115.263 E0.04341
G1 X142.773 Y113.801 E0.04597
G1 X142.803 Y112.410 E0.04361
G1 X142.957 Y111.067 E0.04239
G1 X143.394 Y109.156 E0.06147
G1 X144.077 Y107.323 E0.06134
G1 X144.991 Y105.600 E0.06115
G1 X146.138 Y103.992 E0.06194
G1 X147.443 Y102.591 E0.06000
G1 X148.979 Y101.325 E0.06242
G1 X150.723 Y100.245 E0.06432
G1 X152.509 Y99.448 E0.06133
G1 X154.704 Y98.823 E0.07154
G1 X193.988 Y91.114 E1.25523
G1 X195.723 Y90.875 E0.05492
G1 X197.375 Y90.804 E0.05183
G1 X199.268 Y90.905 E0.05945
G1 X201.362 Y91.248 E0.06652
G1 X203.155 Y91.748 E0.05837
G1 X205.116 Y92.529 E0.06616
G1 X206.783 Y93.415 E0.05919
G1 X208.525 Y94.599 E0.06606
G1 X209.951 Y95.814 E0.05872
G1 X211.385 Y97.330 E0.06544
G1 X212.534 Y98.846 E0.05965
G1 X213.622 Y100.660 E0.06632
G1 X214.405 Y102.365 E0.05883
G1 X215.068 Y104.347 E0.06553
G1 X215.471 Y106.203 E0.05954
G1 X215.692 Y108.290 E0.06580
G1 X215.687 Y110.148 E0.05828
G1 X215.467 Y112.168 E0.06371
G1 X208.331 Y143.664 E1.01255
G1 X196.910 Y178.796 E1.15828
G1 X196.421 Y180.070 E0.04281
G1 X195.352 Y182.036 E0.07014
G1 X193.970 Y183.806 E0.07042
G1 X192.314 Y185.328 E0.07051
G1 X190.452 Y186.545 E0.06975
G1 X188.356 Y187.464 E0.07175
G1 X186.217 Y188.006 E0.06919
G1 X184.079 Y188.195 E0.06730
G1 X181.832 Y188.032 E0.07064
G1 X180.227 Y187.680 E0.05152
G1 X178.734 Y187.162 E0.04952
G1 X177.316 Y186.477 E0.04940
G1 X175.909 Y185.578 E0.05235
G1 X174.664 Y184.552 E0.05059
G1 X173.528 Y183.360 E0.05163
G1 X172.575 Y182.091 E0.04977
G1 X171.784 Y180.733 E0.04927
G1 X167.988 Y172.726 E0.27784
M204 S1500
G1 X168.328 Y172.564 F15000.000
M204 S1000
G1 F1200
G1 X146.890 Y127.349 E1.56899
G1 X143.820 Y117.811 E0.31416
G1 X143.485 Y116.559 E0.04065
G1 X143.255 Y115.219 E0.04261
G1 X143.149 Y113.790 E0.04494
G1 X143.180 Y112.425 E0.04281
G1 X143.331 Y111.115 E0.04134
G1 X143.759 Y109.252 E0.05992
G1 X144.427 Y107.465 E0.05981
G1 X145.319 Y105.786 E0.05962
G1 X146.445 Y104.213 E0.06065
G1 X147.750 Y102.821 E0.05983
G1 X149.309 Y101.553 E0.06300
G1 X150.961 Y100.546 E0.06067
G1 X152.674 Y99.789 E0.05872
G1 X154.777 Y99.193 E0.06852
G1 X194.060 Y91.484 E1.25519
G1 X195.760 Y91.251 E0.05382
G1 X197.378 Y91.181 E0.05077
G1 X199.226 Y91.280 E0.05802
G1 X201.275 Y91.615 E0.06510
G1 X203.033 Y92.105 E0.05721
G1 X204.959 Y92.872 E0.06503
G1 X206.586 Y93.737 E0.05776
G1 X208.299 Y94.900 E0.06492
G1 X209.690 Y96.086 E0.05730
G1 X211.099 Y97.575 E0.06431
G1 X212.221 Y99.055 E0.05820
G1 X213.289 Y100.838 E0.06519
G1 X214.056 Y102.510 E0.05766
G1 X214.705 Y104.450 E0.06414
G1 X215.098 Y106.260 E0.05809
G1 X215.315 Y108.311 E0.06467
G1 X215.310 Y110.133 E0.05713
G1 X215.093 Y112.118 E0.06261
G1 X207.967 Y143.566 E1.01103
G1 X196.551 Y178.679 E1.15765
G1 X196.092 Y179.881 E0.04034
G1 X195.055 Y181.801 E0.06842
G1 X193.711 Y183.531 E0.06870
G1 X192.098 Y185.018 E0.06878
G1 X190.283 Y186.207 E0.06804
G1 X188.238 Y187.105 E0.07001
G1 X186.152 Y187.634 E0.06749
G1 X184.070 Y187.818 E0.06554
G1 X181.878 Y187.657 E0.06891
G1 X180.318 Y187.314 E0.05009
G1 X178.862 Y186.807 E0.04831
G1 X177.487 Y186.141 E0.04791
G1 X176.120 Y185.265 E0.05090
G1 X174.913 Y184.268 E0.04909
G1 X173.809 Y183.109 E0.05020
G1 X172.885 Y181.877 E0.04828
G1 X172.115 Y180.551 E0.04806
G1 X168.354 Y172.619 E0.27527
M204 S1500
G1 X168.694 Y172.457 F15000.000
M204 S1000
