; generated by PrusaSlicer 2.1.0+ on 2019-11-13 at 01:33:49 UTC

; FILAMENT_TYPE_PETG

; external perimeters extrusion width = 0.42mm
; perimeters extrusion width = 0.42mm
; infill extrusion width = 0.50mm
; solid infill extrusion width = 0.42mm
; top infill extrusion width = 0.42mm
; first layer extrusion width = 0.42mm

; external perimeters extrusion width = 0.42mm
; perimeters extrusion width = 0.42mm
; infill extrusion width = 0.50mm
; solid infill extrusion width = 0.42mm
; top infill extrusion width = 0.42mm
; first layer extrusion width = 0.42mm

; external perimeters extrusion width = 0.42mm
; perimeters extrusion width = 0.42mm
; infill extrusion width = 0.50mm
; solid infill extrusion width = 0.42mm
; top infill extrusion width = 0.42mm
; first layer extrusion width = 0.42mm

; external perimeters extrusion width = 0.42mm
; perimeters extrusion width = 0.42mm
; infill extrusion width = 0.50mm
; solid infill extrusion width = 0.42mm
; top infill extrusion width = 0.42mm
; first layer extrusion width = 0.42mm

M107
;P2PP PRINTERPROFILE=373fd85d66ac76f6
;P2PP SPLICEOFFSET=30
;P2PP MINSTARTSPLICE=550
;P2PP MINSPLICE=550
;P2PP MATERIAL_DEFAULT_0_0_0
;P2PP MATERIAL_PLA_PLA_2_-2_3
;P2PP MATERIAL_PET_PET_0_-1_-3

; even is you are not using SIDE TRANSITIONS, make sure the bed is defined correctly!!
; the default settings will match Pruse MK3(s) printers.
;P2PP BEDORIGINX=0
;P2PP BEDORIGINY=0
;P2PP BEDSIZEX=300
;P2PP BEDSIZEY=300

; Following settings are optional (see description below)
;P2PP LINEARPINGLENGTH=350
;P2PP EXTRAENDFILAMENT=150

M115 U3.1.0 ; tell printer latest fw version

; Come up to temperature
M104 S180 ; set extruder temp
M140 S75 ; set bed temp
M190 S75 ; wait for bed temp
M104 S245 ; set extruder temp
M109 S245 ; wait for extruder temp

; Probe and compensate Z tilt
G32

; Home and enable mesh compensation with 10mm fade
G28 Z
G29 S1
M376 H10

; Filament configuration
M703 

G92 E0.0
G21 ; set units to millimeters
G90 ; use absolute coordinates
M83 ; use relative distances for extrusion
T0
G1 Z0.200 F15000.000
;LAYER 0
G1 Z0.200 F15000.000
G1 Z0.400
G1 E-1.00000 F1500.00000
G1 X180.943 Y95.470 F15000.000
G1 Z0.200
G1 E1.00000 F1500.00000
;-------------------------------------
; CP WIPE TOWER FIRST LAYER BRIM START
G1  X180.943 Y102.570 E0.4048 F2400
G1  X178.400 Y103.027  F7000
G1  Y95.013 E0.3350 F2100
G1  X117.486 E2.5466
G1  Y103.027 E0.3350
G1  X178.400 E2.5466
G1  X178.857 Y103.484  F7000
G1  Y94.556 E0.3733 F2100
G1  X117.029 E2.5849
G1  Y103.484 E0.3733
G1  X178.857 E2.5849
G1  X179.314 Y103.941  F7000
G1  Y94.099 E0.4115 F2100
G1  X116.572 E2.6231
G1  Y103.941 E0.4115
G1  X179.314 E2.6231
G1  X179.771 Y104.398  F7000
G1  Y93.642 E0.4497 F2100
G1  X116.115 E2.6613
G1  Y104.398 E0.4497
G1  X179.771 E2.6613
G1  X177.943 Y102.570  F7000
G1  X117.943
G1  X177.943
; CP WIPE TOWER FIRST LAYER BRIM END
;-----------------------------------

G1 E-1.00000 F1500.00000
G1 Z0.400 F15000.000
G1 X171.180 Y140.267
G1 Z0.200
G1 E1.00000 F1500.00000
M204 S1000
G1 F1200
G1 X173.178 Y140.823 E0.06501
G1 X175.321 Y141.677 E0.07234
G1 X177.167 Y142.658 E0.06554
G1 X179.082 Y143.958 E0.07256
G1 X180.655 Y145.297 E0.06476
G1 X182.225 Y146.954 E0.07159
G1 X183.506 Y148.640 E0.06637
G1 X184.695 Y150.622 E0.07248
G1 X185.569 Y152.519 E0.06550
G1 X186.294 Y154.676 E0.07134
G1 X186.744 Y156.732 E0.06600
G1 X186.989 Y159.013 E0.07194
G1 X186.988 Y161.083 E0.06488
G1 X186.754 Y163.275 E0.06914
G1 X179.560 Y195.047 E1.02141
G1 X168.113 Y230.259 E1.16090
G1 X167.473 Y231.889 E0.05491
G1 X166.925 Y232.972 E0.03804
G1 X166.258 Y234.061 E0.04006
G1 X165.518 Y235.075 E0.03936
G1 X164.680 Y236.045 E0.04020
G1 X163.780 Y236.928 E0.03951
G1 X162.811 Y237.737 E0.03959
G1 X161.773 Y238.467 E0.03979
G1 X160.700 Y239.099 E0.03905
G1 X159.529 Y239.666 E0.04079
G1 X158.358 Y240.117 E0.03934
G1 X157.119 Y240.481 E0.04049
G1 X155.940 Y240.727 E0.03776
G1 X153.513 Y240.942 E0.07639
G1 X152.292 Y240.906 E0.03831
G1 X150.994 Y240.761 E0.04094
G1 X149.166 Y240.365 E0.05863
G1 X147.465 Y239.780 E0.05641
G1 X145.847 Y239.002 E0.05631
G1 X144.260 Y237.995 E0.05893
G1 X142.873 Y236.864 E0.05612
G1 X141.619 Y235.572 E0.05643
G1 X140.486 Y234.092 E0.05844
G1 X139.551 Y232.510 E0.05763
G1 X114.196 Y179.027 E1.85580
G1 X113.743 Y177.787 E0.04141
G1 X111.073 Y169.335 E0.27789
G1 X110.673 Y167.816 E0.04926
G1 X110.421 Y166.312 E0.04783
G1 X110.304 Y164.707 E0.05047
G1 X110.338 Y163.156 E0.04864
G1 X110.505 Y161.675 E0.04674
G1 X110.988 Y159.531 E0.06889
G1 X111.738 Y157.492 E0.06812
G1 X112.751 Y155.556 E0.06852
G1 X114.001 Y153.775 E0.06823
G1 X115.462 Y152.179 E0.06785
G1 X117.141 Y150.766 E0.06878
G1 X118.973 Y149.593 E0.06821
G1 X120.976 Y148.653 E0.06939
G1 X122.304 Y148.197 E0.04403
G1 X123.723 Y147.841 E0.04586
G1 X162.788 Y140.173 E1.24822
G1 X164.872 Y139.868 E0.06606
G1 X166.794 Y139.779 E0.06033
G1 X168.891 Y139.892 E0.06582
G1 X171.121 Y140.257 E0.07087
M204 S1500
G1 X171.060 Y140.629 F15000.000
M204 S1000
G1 F1200
G1 X173.055 Y141.180 E0.06487
G1 X175.165 Y142.020 E0.07123
G1 X176.978 Y142.984 E0.06438
G1 X178.855 Y144.259 E0.07115
G1 X180.400 Y145.575 E0.06361
G1 X181.946 Y147.207 E0.07048
G1 X183.197 Y148.856 E0.06490
G1 X184.368 Y150.808 E0.07137
G1 X185.221 Y152.664 E0.06405
G1 X185.933 Y154.788 E0.07024
G1 X186.374 Y156.808 E0.06482
G1 X186.614 Y159.045 E0.07054
G1 X186.611 Y161.068 E0.06344
G1 X186.378 Y163.236 E0.06835
G1 X179.198 Y194.941 E1.01927
G1 X167.757 Y230.133 E1.16027
G1 X167.148 Y231.694 E0.05253
G1 X165.965 Y233.822 E0.07636
G1 X165.245 Y234.812 E0.03837
G1 X164.424 Y235.767 E0.03949
G1 X163.542 Y236.636 E0.03881
G1 X162.597 Y237.425 E0.03860
G1 X160.533 Y238.761 E0.07710
G1 X159.382 Y239.318 E0.04007
G1 X158.232 Y239.761 E0.03864
G1 X155.875 Y240.355 E0.07622
G1 X153.504 Y240.565 E0.07463
G1 X152.305 Y240.529 E0.03762
G1 X151.039 Y240.387 E0.03993
G1 X149.256 Y239.999 E0.05722
G1 X147.601 Y239.428 E0.05491
G1 X146.017 Y238.666 E0.05509
G1 X144.470 Y237.681 E0.05751
G1 X143.120 Y236.579 E0.05462
G1 X141.895 Y235.315 E0.05521
G1 X140.791 Y233.869 E0.05703
G1 X139.882 Y232.328 E0.05611
G1 X114.550 Y178.897 E1.85401
G1 X114.104 Y177.677 E0.04074
G1 X111.433 Y169.222 E0.27801
G1 X111.046 Y167.759 E0.04746
G1 X110.797 Y166.278 E0.04707
G1 X110.681 Y164.696 E0.04976
G1 X110.713 Y163.188 E0.04729
G1 X110.877 Y161.730 E0.04599
G1 X111.351 Y159.635 E0.06735
G1 X112.088 Y157.633 E0.06689
G1 X113.075 Y155.749 E0.06670
G1 X114.304 Y154.001 E0.06699
G1 X115.733 Y152.442 E0.06633
G1 X117.376 Y151.062 E0.06725
G1 X119.168 Y149.916 E0.06668
G1 X121.145 Y148.992 E0.06843
G1 X122.426 Y148.554 E0.04246
G1 X123.805 Y148.209 E0.04455
G1 X162.859 Y140.544 E1.24790
G1 X164.910 Y140.243 E0.06500
G1 X166.797 Y140.156 E0.05923
G1 X168.848 Y140.267 E0.06437
G1 X171.001 Y140.619 E0.06842
M204 S1500
G1 X170.940 Y140.991 F15000.000
M204 S1000
G1 F1200
G1 X172.940 Y141.539 E0.06502
G1 X175.009 Y142.364 E0.06982
G1 X176.782 Y143.306 E0.06294
G1 X178.629 Y144.561 E0.07002
G1 X180.145 Y145.853 E0.06246
G1 X181.660 Y147.453 E0.06908
G1 X182.883 Y149.065 E0.06344
G1 X184.035 Y150.986 E0.07025
G1 X184.873 Y152.809 E0.06288
G1 X185.571 Y154.891 E0.06886
G1 X186.001 Y156.865 E0.06336
G1 X186.237 Y159.067 E0.06943
G1 X186.234 Y161.054 E0.06229
G1 X186.006 Y163.178 E0.06698
G1 X178.836 Y194.834 E1.01771
G1 X167.399 Y230.016 E1.15992
G1 X166.822 Y231.499 E0.04990
G1 X165.670 Y233.584 E0.07468
G1 X164.167 Y235.489 E0.07610
G1 X162.383 Y237.114 E0.07565
G1 X160.373 Y238.419 E0.07512
G1 X159.245 Y238.967 E0.03935
G1 X158.124 Y239.400 E0.03766
G1 X155.819 Y239.982 E0.07455
G1 X153.505 Y240.187 E0.07286
G1 X151.094 Y240.013 E0.07578
G1 X149.355 Y239.635 E0.05580
G1 X147.736 Y239.076 E0.05371
G1 X146.196 Y238.334 E0.05359
G1 X144.687 Y237.373 E0.05609
G1 X143.375 Y236.301 E0.05313
G1 X142.177 Y235.064 E0.05400
G1 X141.100 Y233.654 E0.05561
G1 X140.212 Y232.146 E0.05488
G1 X114.901 Y178.759 E1.85252
G1 X111.795 Y169.117 E0.31759
G1 X111.417 Y167.692 E0.04624
G1 X111.172 Y166.245 E0.04602
G1 X111.058 Y164.694 E0.04875
G1 X111.090 Y163.202 E0.04680
G1 X111.252 Y161.777 E0.04496
G1 X111.716 Y159.730 E0.06581
G1 X112.438 Y157.774 E0.06537
G1 X113.409 Y155.926 E0.06546
G1 X114.611 Y154.220 E0.06545
G1 X116.011 Y152.698 E0.06482
G1 X117.618 Y151.352 E0.06572
G1 X119.370 Y150.235 E0.06516
G1 X121.313 Y149.332 E0.06717
G1 X122.547 Y148.911 E0.04090
G1 X123.877 Y148.579 E0.04297
G1 X162.931 Y140.914 E1.24788
G1 X164.939 Y140.619 E0.06365
G1 X166.791 Y140.533 E0.05813
G1 X168.805 Y140.641 E0.06321
G1 X170.881 Y140.981 E0.06598
M204 S1500
G1 X170.820 Y141.353 F15000.000
M204 S1000
G1 F1200
G1 X172.817 Y141.896 E0.06489
G1 X174.853 Y142.707 E0.06870
G1 X176.593 Y143.632 E0.06178
G1 X178.402 Y144.862 E0.06861
G1 X179.884 Y146.125 E0.06102
G1 X181.374 Y147.699 E0.06797
G1 X182.574 Y149.281 E0.06227
G1 X183.703 Y151.165 E0.06885
G1 X184.521 Y152.945 E0.06143
G1 X185.210 Y155.002 E0.06803
G1 X185.630 Y156.931 E0.06190
G1 X185.861 Y159.098 E0.06832
G1 X185.857 Y161.039 E0.06086
G1 X185.632 Y163.128 E0.06590
G1 X178.472 Y194.737 E1.01617
G1 X167.041 Y229.899 E1.15928
G1 X166.496 Y231.306 E0.04731
G1 X165.370 Y233.354 E0.07327
G1 X163.909 Y235.213 E0.07412
G1 X162.169 Y236.803 E0.07394
G1 X160.206 Y238.081 E0.07343
G1 X159.098 Y238.619 E0.03861
G1 X158.007 Y239.041 E0.03667
G1 X155.754 Y239.611 E0.07286
G1 X153.505 Y239.810 E0.07081
G1 X151.148 Y239.640 E0.07408
G1 X149.454 Y239.271 E0.05438
G1 X147.872 Y238.724 E0.05249
G1 X146.375 Y238.002 E0.05210
G1 X144.897 Y237.060 E0.05495
G1 X143.583 Y235.980 E0.05332
G1 X142.382 Y234.724 E0.05449
G1 X141.375 Y233.387 E0.05248
G1 X140.539 Y231.956 E0.05197
G1 X115.252 Y178.620 E1.85076
G1 X112.155 Y169.004 E0.31674
G1 X111.788 Y167.624 E0.04476
G1 X111.547 Y166.202 E0.04525
G1 X111.435 Y164.683 E0.04774
G1 X111.467 Y163.225 E0.04574
G1 X111.626 Y161.824 E0.04420
G1 X112.084 Y159.817 E0.06455
G1 X112.795 Y157.899 E0.06412
G1 X113.752 Y156.088 E0.06421
G1 X114.947 Y154.404 E0.06476
G1 X116.320 Y152.924 E0.06330
G1 X117.917 Y151.601 E0.06503
G1 X119.643 Y150.516 E0.06392
G1 X121.594 Y149.628 E0.06718
G1 X123.967 Y148.946 E0.07744
G1 X163.262 Y141.234 E1.25557
G1 X165.067 Y140.985 E0.05711
G1 X166.794 Y140.910 E0.05422
G1 X168.762 Y141.016 E0.06177
G1 X170.761 Y141.343 E0.06352
M204 S1500
G1 X170.700 Y141.715 F15000.000
M204 S1000
G1 F1200
G1 X170.857 Y141.740 E0.00499
G1 X172.695 Y142.252 E0.05980
G1 X174.689 Y143.046 E0.06729
G1 X176.388 Y143.949 E0.06035
G1 X178.169 Y145.158 E0.06748
G1 X179.622 Y146.397 E0.05987
G1 X181.088 Y147.945 E0.06684
G1 X182.260 Y149.490 E0.06082
G1 X183.371 Y151.343 E0.06773
G1 X184.173 Y153.090 E0.06027
G1 X184.847 Y155.105 E0.06664
G1 X185.259 Y156.997 E0.06072
G1 X185.485 Y159.120 E0.06692
G1 X185.480 Y161.024 E0.05970
G1 X185.258 Y163.079 E0.06481
G1 X178.110 Y194.631 E1.01435
G1 X166.685 Y229.773 E1.15864
G1 X166.169 Y231.114 E0.04504
G1 X165.075 Y233.117 E0.07157
G1 X163.651 Y234.936 E0.07241
G1 X161.946 Y236.498 E0.07251
G1 X160.037 Y237.743 E0.07146
G1 X157.890 Y238.683 E0.07349
G1 X155.690 Y239.239 E0.07117
G1 X153.496 Y239.433 E0.06905
G1 X151.194 Y239.266 E0.07236
G1 X149.544 Y238.905 E0.05295
G1 X148.007 Y238.372 E0.05101
G1 X146.554 Y237.670 E0.05061
G1 X145.115 Y236.752 E0.05351
G1 X143.832 Y235.696 E0.05209
G1 X142.663 Y234.472 E0.05306
G1 X141.681 Y233.165 E0.05126
G1 X140.870 Y231.775 E0.05048
G1 X115.606 Y178.489 E1.84902
G1 X112.515 Y168.890 E0.31616
G1 X112.159 Y167.556 E0.04328
G1 X111.922 Y166.158 E0.04447
G1 X111.812 Y164.672 E0.04672
G1 X111.843 Y163.248 E0.04467
G1 X111.999 Y161.880 E0.04316
G1 X112.446 Y159.921 E0.06301
G1 X113.141 Y158.049 E0.06260
G1 X114.075 Y156.282 E0.06268
G1 X115.249 Y154.632 E0.06349
G1 X116.590 Y153.188 E0.06179
G1 X118.157 Y151.892 E0.06376
G1 X119.939 Y150.786 E0.06576
G1 X121.760 Y149.969 E0.06259
G1 X124.040 Y149.316 E0.07434
G1 X163.334 Y141.604 E1.25554
G1 X165.103 Y141.361 E0.05602
G1 X166.789 Y141.287 E0.05289
G1 X168.719 Y141.391 E0.06061
G1 X170.641 Y141.705 E0.06107
M204 S1500
G1 X170.779 Y142.109 F15000.000
M204 S1000
G1 F1200
G1 X172.572 Y142.609 E0.05837
G1 X174.532 Y143.390 E0.06616
G1 X176.199 Y144.276 E0.05919
G1 X177.942 Y145.460 E0.06606
G1 X179.367 Y146.675 E0.05872
G1 X180.802 Y148.190 E0.06544
G1 X181.951 Y149.707 E0.05965
G1 X183.038 Y151.521 E0.06632
G1 X183.821 Y153.226 E0.05883
G1 X184.485 Y155.208 E0.06553
G1 X184.888 Y157.064 E0.05954
G1 X185.109 Y159.150 E0.06580
G1 X185.104 Y161.009 E0.05828
G1 X184.884 Y163.029 E0.06371
G1 X177.748 Y194.525 E1.01255
G1 X166.326 Y229.656 E1.15828
G1 X165.838 Y230.931 E0.04281
G1 X164.769 Y232.896 E0.07014
G1 X163.387 Y234.667 E0.07042
G1 X161.731 Y236.188 E0.07051
G1 X159.869 Y237.405 E0.06975
G1 X157.773 Y238.324 E0.07175
G1 X155.633 Y238.866 E0.06919
G1 X153.495 Y239.056 E0.06730
G1 X151.249 Y238.893 E0.07064
G1 X149.643 Y238.541 E0.05152
G1 X148.151 Y238.023 E0.04952
G1 X146.733 Y237.338 E0.04940
G1 X145.326 Y236.439 E0.05235
G1 X144.081 Y235.413 E0.05059
G1 X142.944 Y234.221 E0.05163
G1 X141.991 Y232.951 E0.04977
G1 X141.201 Y231.593 E0.04927
G1 X115.956 Y178.349 E1.84757
G1 X112.874 Y168.777 E0.31530
G1 X112.530 Y167.488 E0.04182
G1 X112.297 Y166.124 E0.04341
G1 X112.189 Y164.661 E0.04597
G1 X112.220 Y163.271 E0.04361
G1 X112.373 Y161.928 E0.04239
G1 X112.811 Y160.017 E0.06147
G1 X113.494 Y158.183 E0.06134
G1 X114.408 Y156.461 E0.06115
G1 X115.555 Y154.852 E0.06194
G1 X116.860 Y153.452 E0.06000
G1 X118.396 Y152.186 E0.06242
G1 X120.140 Y151.106 E0.06432
G1 X121.926 Y150.309 E0.06133
G1 X124.121 Y149.684 E0.07154
G1 X163.405 Y141.974 E1.25523
G1 X165.140 Y141.736 E0.05492
G1 X166.792 Y141.664 E0.05183
G1 X168.685 Y141.766 E0.05945
G1 X170.720 Y142.100 E0.06464
M204 S1500
G1 X170.659 Y142.471 F15000.000
M204 S1000
G1 F1200
G1 X172.449 Y142.965 E0.05825
G1 X174.376 Y143.733 E0.06503
G1 X176.003 Y144.598 E0.05776
G1 X177.715 Y145.761 E0.06492
G1 X179.106 Y146.946 E0.05730
G1 X180.516 Y148.436 E0.06431
G1 X181.637 Y149.916 E0.05820
G1 X182.706 Y151.699 E0.06519
G1 X183.473 Y153.371 E0.05766
G1 X184.122 Y155.311 E0.06414
G1 X184.515 Y157.121 E0.05809
G1 X184.732 Y159.172 E0.06467
G1 X184.727 Y160.994 E0.05713
G1 X184.510 Y162.979 E0.06261
G1 X177.384 Y194.427 E1.01103
G1 X165.968 Y229.539 E1.15765
G1 X165.509 Y230.742 E0.04034
G1 X164.472 Y232.661 E0.06842
G1 X163.128 Y234.392 E0.06870
G1 X161.515 Y235.879 E0.06878
G1 X159.699 Y237.068 E0.06804
G1 X157.655 Y237.966 E0.07001
G1 X155.568 Y238.495 E0.06749
G1 X153.486 Y238.679 E0.06554
G1 X151.294 Y238.518 E0.06891
G1 X149.734 Y238.175 E0.05009
G1 X148.279 Y237.668 E0.04831
G1 X146.904 Y237.001 E0.04791
G1 X145.537 Y236.126 E0.05090
G1 X144.329 Y235.129 E0.04909
G1 X143.226 Y233.970 E0.05020
G1 X142.302 Y232.737 E0.04828
G1 X141.531 Y231.412 E0.04806
G1 X116.306 Y178.209 E1.84614
G1 X113.236 Y168.672 E0.31416
G1 X112.901 Y167.419 E0.04065
G1 X112.672 Y166.080 E0.04261
G1 X112.566 Y164.651 E0.04494
G1 X112.597 Y163.286 E0.04281
G1 X112.748 Y161.976 E0.04134
G1 X113.176 Y160.113 E0.05992
G1 X113.843 Y158.326 E0.05981
G1 X114.736 Y156.647 E0.05962
G1 X115.861 Y155.074 E0.06065
G1 X117.167 Y153.682 E0.05983
G1 X118.725 Y152.414 E0.06300
G1 X120.378 Y151.407 E0.06067
G1 X122.091 Y150.650 E0.05872
G1 X124.193 Y150.054 E0.06852
G1 X163.476 Y142.345 E1.25519
G1 X165.177 Y142.111 E0.05382
G1 X166.795 Y142.042 E0.05077
G1 X168.643 Y142.141 E0.05802
G1 X170.600 Y142.461 E0.06218
M204 S1500
G1 X170.539 Y142.833 F15000.000
M204 S1000
G1 F1200
G1 X172.335 Y143.325 E0.05840
G1 X174.220 Y144.076 E0.06362
G1 X175.807 Y144.919 E0.05634
G1 X177.489 Y146.063 E0.06377
G1 X178.845 Y147.219 E0.05588
G1 X180.230 Y148.682 E0.06317
G1 X181.324 Y150.125 E0.05677
G1 X182.373 Y151.877 E0.06405
G1 X183.121 Y153.507 E0.05623
G1 X183.759 Y155.413 E0.06301
G1 X184.142 Y157.179 E0.05665
G1 X184.356 Y159.194 E0.06354
G1 X184.350 Y160.971 E0.05571
G1 X184.136 Y162.929 E0.06176
G1 X177.022 Y194.321 E1.00925
G1 X165.609 Y229.422 E1.15728
G1 X165.180 Y230.553 E0.03792
G1 X164.174 Y232.427 E0.06669
G1 X162.868 Y234.117 E0.06698
G1 X161.298 Y235.570 E0.06705
